X: 17287
T: Hero Without A Name, The
R: jig
M: 6/8
K: Edorian
|:EDE GAB|AGE GED|EDE GAB|A2 G EDD|
EDE GAB|AGE GBd|cBA BAG|ABA GED:|
|:eBd edB|cBA BAG|GAB AGE|AGA BGz|
[1 eBd egf|edB cBA|GAB AGE|AGE E3:|
[2 EDE GAB|A2 G EDD|EDE GEG|ABd BAG||

